src/assets/img/icons/duotone-icons/Cooking/Fork-spoon.svg

<?xml version="1.0" encoding="UTF-8"?>
<svg width="24px" height="24px" viewBox="0 0 24 24" version="1.1" xmlns="http://www.w3.org/2000/svg" xmlns:xlink="http://www.w3.org/1999/xlink">
    <!-- Generator: Sketch 52.2 (67145) - http://www.bohemiancoding.com/sketch -->
    <title>Stockholm-icons / Cooking / Fork-spoon</title>
    <desc>Created with Sketch.</desc>
    <g id="Stockholm-icons-/-Cooking-/-Fork-spoon" stroke="none" stroke-width="1" fill="none" fill-rule="evenodd">
        <rect id="bound" x="0" y="0" width="24" height="24"></rect>
        <path d="M15,3 L15.4502481,7.5024814 C15.4784917,7.78491722 15.7161555,8 16,8 C16.2838445,8 16.5215083,7.78491722 16.5497519,7.5024814 L17,3 L18,3 L18.4502481,7.5024814 C18.4784917,7.78491722 18.7161555,8 19,8 C19.2838445,8 19.5215083,7.78491722 19.5497519,7.5024814 L20,3 L21,3 L21,7.5 C21,9.43299662 19.4329966,11 17.5,11 C15.5670034,11 14,9.43299662 14,7.5 L14,3 L15,3 Z" id="Combined-Shape" fill="#335EEA"></path>
        <path d="M17.5,13 L17.5,13 C18.0610373,13 18.5243493,13.4382868 18.55547,13.9984604 L18.916795,20.5023095 C18.9602658,21.2847837 18.3611851,21.9543445 17.5787108,21.9978153 C17.5524991,21.9992715 17.5262521,22 17.5,22 L17.5,22 C16.7163192,22 16.0810203,21.3647011 16.0810203,20.5810203 C16.0810203,20.5547682 16.0817488,20.5285212 16.083205,20.5023095 L16.44453,13.9984604 C16.4756507,13.4382868 16.9389627,13 17.5,13 Z" id="Rectangle" fill="#335EEA" opacity="0.3"></path>
        <path d="M7.5,14 L7.5,14 C8.06209761,14 8.5273156,14.4370496 8.56237829,14.9980526 L8.90643257,20.5029211 C8.95497952,21.2796724 8.3646533,21.9487088 7.58790204,21.9972557 C7.55863704,21.9990848 7.52932209,22 7.5,22 L7.5,22 C6.72173313,22 6.09082317,21.36909 6.09082317,20.5908232 C6.09082317,20.5615011 6.09173837,20.5321861 6.09356743,20.5029211 L6.43762171,14.9980526 C6.4726844,14.4370496 6.93790239,14 7.5,14 Z" id="Rectangle-Copy" fill="#335EEA" opacity="0.3"></path>
        <path d="M7.5,12 C5.56700338,12 4,9.43299662 4,7.5 C4,5.56700338 5.56700338,3 7.5,3 C9.43299662,3 11,5.56700338 11,7.5 C11,9.43299662 9.43299662,12 7.5,12 Z M7.5095372,4.60103244 L7.56069005,9.94758244 C8.61891495,9.8578583 9.45855912,8.97981222 9.47749614,7.8949109 C9.49728809,6.76103086 8.63275447,4.70470991 7.5095372,4.60103244 Z" id="Combined-Shape" fill="#335EEA"></path>
    </g>
</svg>

<svg width="24" height="24" viewBox="0 0 24 24" xmlns="http://www.w3.org/2000/svg"><g fill="none" fill-rule="evenodd"><path d="M0 0h24v24H0z"/><path d="M15 3l.45 4.502a.552.552 0 001.1 0L17 3h1l.45 4.502a.552.552 0 001.1 0L20 3h1v4.5a3.5 3.5 0 01-7 0V3h1z" fill="#335EEA"/><path d="M17.5 13c.561 0 1.024.438 1.055.998l.362 6.504A1.419 1.419 0 0117.5 22a1.419 1.419 0 01-1.417-1.498l.362-6.504c.03-.56.494-.998 1.055-.998zM7.5 14c.562 0 1.027.437 1.062.998l.344 5.505A1.41 1.41 0 017.5 22a1.41 1.41 0 01-1.406-1.497l.344-5.505c.035-.561.5-.998 1.062-.998z" fill="#335EEA" opacity=".3"/><path d="M7.5 12C5.567 12 4 9.433 4 7.5 4 5.567 5.567 3 7.5 3S11 5.567 11 7.5C11 9.433 9.433 12 7.5 12zm.01-7.399l.05 5.347a2.097 2.097 0 001.917-2.053c.02-1.134-.844-3.19-1.967-3.294z" fill="#335EEA"/></g></svg>
